X:1
T:Title
%%score { ( 1 3 ) | 2 }
L:1/8
M:4/4
K:G
V:1 treble nm="Grand Piano"
V:3 treble 
V:2 bass 
V:1
 z4 z2[Q:1/4=108] [B,D]2 | [B,G]2 [B,G]2 [DG]2 A2 | B2 c2 B2 G2 | A2 c2 B2 A2 | %4
[M:3/4] [B,G]2 [CE]2 [B,D]2 |[M:1/4] GB |[M:4/4] d4 B2 G2 | [GB]2 [FA]4 z C | %8
 [B,G]2 [B,G]2 [DG]2 A2 |[M:3/4] B2 c2 B2 |[M:1/4] G2 |[M:4/4] A2 c2 B2 A2 | %12
 [B,G]2 [CE]2 [B,D]2 GB | [Fd]4 [Fc]2 [FA]2 |[M:3/4] [FA]2 [B,G]4 |[M:1/4] Bc |[M:4/4] d4 B2 d2 | %17
 e2 d4 B2 | [FA]4 [EG]2 [FA]2 |[M:3/4] B2 d4 |[M:1/4] Bc |[M:4/4] d4 B2 d2 | e2 d4 [Ec]2 | %23
 B4 A2 A2 |[M:3/4] [B,G]6 |] %25
V:2
 z4 z2 [G,,G,]2 | [G,,G,]2 [G,,G,]2 [B,,G,]2 [D,F,D]2 | [G,D]2 [G,E]2 [G,D]2 [G,B,]2 | %3
 [D,F,D]2 [D,A,D]2 [D,G,D]2 [D,F,C]2 |[M:3/4] [G,,G,]2 [G,,G,]2 [G,,G,]2 | %5
[M:1/4][K:treble] [G,B,D][G,D] |[M:4/4] [G,B,G]4 [G,DG]2 [G,B,D]2 | [D,D]2 [D,D]4 [D,F,]2 | %8
 [G,,G,]2 [G,,G,]2 [B,,G,]2 [D,F,D]2 |[M:3/4] [G,D]2 [G,E]2 [G,D]2 |[M:1/4] [G,B,]2 | %11
[M:4/4] [D,F,D]2 [D,A,D]2 [D,G,D]2 [D,F,C]2 | [G,,G,]2 [G,,G,]2 [G,,G,]2 [G,B,D][G,D] | %13
 [D,A,]4 [D,D]2 [D,C]2 |[M:3/4] [D,C]2 [G,,G,]4 |[M:1/4][K:treble] [G,D][G,A,D] | %16
[M:4/4] [G,B,G]4 [G,DG]2 [G,B,G]2 | [G,CG]2 [G,B,G]4 [G,DG]2 | [D,C]4 [E,B,]2 [D,D]2 | %19
[M:3/4][K:treble] [G,DG]2 [G,B,G]4 |[M:1/4] [G,D][G,A,D] |[M:4/4] [G,B,G]4 [G,DG]2 [G,B,G]2 | %22
 [G,CG]2 [G,B,G]4[K:bass] [C,G,]2 | [D,G,D]4 [D,F,C]2 [D,F,C]2 |[M:3/4] [G,,G,]6 |] %25
V:3
 x8 | x8 | x8 | x8 |[M:3/4] x6 |[M:1/4] x2 |[M:4/4] x8 | z4 z2 D2 | x8 |[M:3/4] x6 |[M:1/4] x2 | %11
[M:4/4] x8 | x8 | x8 |[M:3/4] x6 |[M:1/4] x2 |[M:4/4] x8 | x8 | x8 |[M:3/4] x6 |[M:1/4] x2 | %21
[M:4/4] x8 | x8 | x8 |[M:3/4] x6 |] %25

